X:1
T:Tunis, 86.86.88
T:Tunis, 86.86.88
T:E. Roberts, 1893
T:Public Domain Courtesy of the Cyber Hymnal™
C:E. Roberts, 1893
Z:Public Domain
Z:Courtesy of the Cyber Hymnal™
%%score ( 1 2 ) ( 3 4 )
L:1/8
Q:1/4=83
M:2/4
K:A
V:1 treble 
V:2 treble 
V:3 bass 
V:4 bass 
V:1
 [CA] | [Ec][EA] [EA][EA] | [DB][DF] [DF][DF] | E[EA] [EA][Ec] | [EB]3 [EB] | [Ec][EA] [EA][EA] | %6
 [DB][DF] [DF][DF] | [CE][CA] [DB][Ec] | [CA]4 | [DA]2 [DF]>[DA] | [CA]3 z | [Ec]2 [Ed]>[Ec] | %12
 [EB]3 z | [EA]2 [EB]>[EB] | (c e2) [Fd] | [Ec]2 [DB]2 | [CA]3 |] %17
V:2
 x | x4 | x4 | E x3 | x4 | x4 | x4 | x4 | x4 | x4 | x4 | x4 | x4 | x4 | E3 x | x4 | x3 |] %17
V:3
 [A,,A,] | [A,,A,][C,A,] [C,A,][C,A,] | [D,F,][D,A,] [D,A,][D,A,] | [D,A,][D,A,] [A,,C][D,A,] | %4
 [E,G,]3 [E,G,] | [A,,A,][C,A,] [C,A,][C,A,] | [D,F,][D,A,] [D,A,][D,A,] | %7
 [E,A,][E,A,] [E,G,][E,G,] | [A,,A,]4 | [D,F,]2 [D,A,]>[D,F,] | [A,,E,]3 z | A,2 [G,B,]>A, | %12
 [E,G,]3 z | [C,A,]2 [B,,G,]>[B,,G,] | A,3 [D,A,] | [E,A,]2 (G,E,) | [A,,E,]3 |] %17
V:4
 x | x4 | x4 | x4 | x4 | x4 | x4 | x4 | x4 | x4 | x4 | A,2 A,/ x3/2 | x4 | x4 | (A,, C,2) x | %15
 x2 E,2 | x3 |] %17

